svg/relation_only_one_to_only_one.svg

<svg xmlns="http://www.w3.org/2000/svg" viewBox="0 0 24 24"><path d="M22 15v2h-1v2h-2v-2h-1v2h-2v-2h-5V9H8v2H6V9H5v2H3V9H2V7h1V5h2v2h1V5h2v2h5v8h3v-2h2v2h1v-2h2v2Z"/></svg>

<?xml version="1.0" encoding="UTF-8"?><!DOCTYPE svg PUBLIC "-//W3C//DTD SVG 1.1//EN" "http://www.w3.org/Graphics/SVG/1.1/DTD/svg11.dtd"><svg xmlns="http://www.w3.org/2000/svg" xmlns:xlink="http://www.w3.org/1999/xlink" version="1.1" id="mdi-relation-only-one-to-only-one" width="24" height="24" viewBox="0 0 24 24"><path d="M22 15V17H21V19H19V17H18V19H16V17H11V9H8V11H6V9H5V11H3V9H2V7H3V5H5V7H6V5H8V7H13V15H16V13H18V15H19V13H21V15Z" /></svg>
